X:69
T:Lou Bailro
T:(Dialog de bergers)
M:C
L:1/8
N:Tres Large
N:La Bourre 4th edition 1929, page 71
Z:Steve Mansfield www.lesession.co.uk May 2012
K:Bb
!f! d4 d d d d | d2 d d d d d d |
c2 e2 - e d c B/ A/ | G2 F6 | c3 d c c B c | 
d4 d2 (3 c c c ||!pp! "en cho" d2 d d d2 d2 | c2 e2 d - d/ c/ B/ A/ | 
G4 !fermata! F4 | c3 d c c B c | d4 d2 (3 c c c | !fermata! B8 |]

